dist/img/lapka.svg

<svg width="73" height="71" viewBox="0 0 73 71" fill="none" xmlns="http://www.w3.org/2000/svg">
<g clip-path="url(#clip0_0_33)">
<g filter="url(#filter0_d_0_33)">
<path d="M52.404 38.0791C47.9356 32.6364 42.2876 29.639 36.5001 29.639C30.7125 29.639 25.0644 32.6364 20.5962 38.0791C16.5799 42.9713 14.1821 49.1369 14.1821 54.572C14.1821 57.2122 14.9822 59.2233 16.56 60.5495C18.1174 61.8586 20.1735 62.3015 22.4673 62.3013C24.9082 62.3013 27.6184 61.7999 30.2813 61.3071C32.6083 60.8764 34.8061 60.4697 36.5002 60.4697C37.9623 60.4697 40.0239 60.8557 42.2061 61.2644C47.306 62.2197 53.0866 63.3021 56.4258 60.5012C58.0133 59.1697 58.8181 57.1748 58.8181 54.572C58.8183 49.1369 56.4205 42.9713 52.404 38.0791Z" fill="#FF8A00"/>
<path d="M52.8608 8.52494C51.2259 6.09318 48.8848 4.69861 46.4377 4.69861C43.9905 4.69861 41.6496 6.09331 40.0147 8.52494C38.5129 10.7588 37.6857 13.6924 37.6857 16.7854C37.6857 19.8784 38.5127 22.812 40.0147 25.0459C41.6496 27.4776 43.9907 28.8723 46.4377 28.8723C48.8849 28.8723 51.2259 27.4776 52.8608 25.0459C54.3626 22.812 55.1898 19.8784 55.1898 16.7854C55.1898 13.6924 54.3627 10.7587 52.8608 8.52494Z" fill="#FF8A00"/>
<path d="M32.9854 8.52477C31.3505 6.09301 29.0095 4.69844 26.5624 4.69844C24.1152 4.69844 21.7741 6.09314 20.1393 8.52477C18.6375 10.7587 17.8103 13.6923 17.8103 16.7853C17.8103 19.8783 18.6374 22.8119 20.1393 25.0458C21.7742 27.4775 24.1152 28.8722 26.5624 28.8722C29.0095 28.8722 31.3505 27.4775 32.9854 25.0458C34.4872 22.8119 35.3144 19.8784 35.3144 16.7853C35.3143 13.6923 34.4872 10.7585 32.9854 8.52477Z" fill="#FF8A00"/>
<path d="M69.3201 27.4977C68.6611 25.236 67.2484 23.5925 65.3425 22.8703C63.8087 22.2891 62.0774 22.3877 60.4674 23.1478C58.2487 24.1952 56.4351 26.3581 55.4921 29.0817C54.7215 31.3073 54.6254 33.6598 55.2217 35.706C55.8807 37.9678 57.2935 39.6113 59.1995 40.3335C59.8591 40.5834 60.555 40.7076 61.2622 40.7076C62.1996 40.7076 63.1569 40.4892 64.0746 40.0559C66.2934 39.0085 68.1069 36.8457 69.05 34.1222V34.1221C69.8205 31.8966 69.9166 29.544 69.3201 27.4977Z" fill="#FF8A00"/>
<path d="M17.5082 29.0814C16.565 26.3578 14.7515 24.1951 12.5329 23.1477C10.9228 22.3876 9.19133 22.2892 7.65772 22.8702C5.75171 23.5925 4.33899 25.236 3.67992 27.4976C3.08362 29.5439 3.17974 31.8965 3.95037 34.122V34.1221C4.89365 36.8457 6.70705 39.0084 8.92568 40.0558C9.84353 40.4891 10.8007 40.7075 11.7381 40.7075C12.4453 40.7075 13.1414 40.5832 13.8008 40.3334C15.7071 39.611 17.1197 37.9675 17.7788 35.7059C18.3748 33.6598 18.2787 31.3072 17.5082 29.0814Z" fill="#FF8A00"/>
</g>
</g>
<defs>
<filter id="filter0_d_0_33" x="-2.70667" y="2.69844" width="78.4135" height="69.6029" filterUnits="userSpaceOnUse" color-interpolation-filters="sRGB">
<feFlood flood-opacity="0" result="BackgroundImageFix"/>
<feColorMatrix in="SourceAlpha" type="matrix" values="0 0 0 0 0 0 0 0 0 0 0 0 0 0 0 0 0 0 127 0" result="hardAlpha"/>
<feOffset dy="4"/>
<feGaussianBlur stdDeviation="3"/>
<feComposite in2="hardAlpha" operator="out"/>
<feColorMatrix type="matrix" values="0 0 0 0 0 0 0 0 0 0 0 0 0 0 0 0 0 0 0.25 0"/>
<feBlend mode="normal" in2="BackgroundImageFix" result="effect1_dropShadow_0_33"/>
<feBlend mode="normal" in="SourceGraphic" in2="effect1_dropShadow_0_33" result="shape"/>
</filter>
<clipPath id="clip0_0_33">
<rect width="73" height="71" fill="white"/>
</clipPath>
</defs>
</svg>

<svg width="73" height="71" fill="none" xmlns="http://www.w3.org/2000/svg"><g filter="url(#b)" fill="#FF8A00" clip-path="url(#a)"><path d="M52.404 38.08c-4.468-5.444-10.116-8.441-15.904-8.441s-11.436 2.997-15.904 8.44c-4.016 4.892-6.414 11.058-6.414 16.493 0 2.64.8 4.651 2.378 5.977 1.557 1.31 3.614 1.752 5.907 1.752 2.441 0 5.151-.501 7.814-.994 2.327-.43 4.525-.837 6.22-.837 1.461 0 3.523.386 5.705.794 5.1.956 10.88 2.038 14.22-.763 1.587-1.331 2.392-3.326 2.392-5.929 0-5.435-2.398-11.6-6.414-16.493ZM52.86 8.525c-1.634-2.432-3.975-3.826-6.422-3.826-2.448 0-4.788 1.394-6.423 3.826-1.502 2.234-2.33 5.167-2.33 8.26s.828 6.027 2.33 8.26c1.635 2.433 3.976 3.827 6.423 3.827s4.788-1.394 6.423-3.826c1.502-2.234 2.329-5.168 2.329-8.26 0-3.094-.827-6.027-2.33-8.261ZM32.985 8.525c-1.634-2.432-3.976-3.827-6.423-3.827s-4.788 1.395-6.423 3.827c-1.502 2.234-2.329 5.167-2.329 8.26s.827 6.027 2.33 8.26c1.634 2.432 3.975 3.827 6.422 3.827 2.447 0 4.788-1.395 6.423-3.826 1.502-2.234 2.33-5.168 2.33-8.26 0-3.094-.828-6.028-2.33-8.261ZM69.32 27.498c-.659-2.262-2.072-3.905-3.977-4.628-1.534-.58-3.266-.482-4.876.278-2.218 1.047-4.032 3.21-4.975 5.934-.77 2.225-.867 4.578-.27 6.624.659 2.262 2.072 3.905 3.977 4.627.66.25 1.356.375 2.063.375a6.59 6.59 0 0 0 2.813-.652c2.218-1.047 4.032-3.21 4.975-5.934.77-2.225.867-4.578.27-6.624ZM17.508 29.081c-.943-2.723-2.756-4.886-4.975-5.933-1.61-.76-3.342-.859-4.875-.278-1.906.723-3.319 2.366-3.978 4.628-.596 2.046-.5 4.398.27 6.624.944 2.724 2.757 4.886 4.976 5.934a6.59 6.59 0 0 0 2.812.652c.707 0 1.403-.125 2.063-.375 1.906-.722 3.319-2.365 3.978-4.627.596-2.046.5-4.399-.27-6.625Z"/></g><defs><clipPath id="a"><path fill="#fff" d="M0 0h73v71H0z"/></clipPath><filter id="b" x="-2.707" y="2.698" width="78.413" height="69.603" filterUnits="userSpaceOnUse" color-interpolation-filters="sRGB"><feFlood flood-opacity="0" result="BackgroundImageFix"/><feColorMatrix in="SourceAlpha" values="0 0 0 0 0 0 0 0 0 0 0 0 0 0 0 0 0 0 127 0" result="hardAlpha"/><feOffset dy="4"/><feGaussianBlur stdDeviation="3"/><feComposite in2="hardAlpha" operator="out"/><feColorMatrix values="0 0 0 0 0 0 0 0 0 0 0 0 0 0 0 0 0 0 0.25 0"/><feBlend in2="BackgroundImageFix" result="effect1_dropShadow_0_33"/><feBlend in="SourceGraphic" in2="effect1_dropShadow_0_33" result="shape"/></filter></defs></svg>
